app/dist/common/images/baoshan-iron-and-steel.svg

<svg height="18" viewBox="0 0 18 18" width="18" xmlns="http://www.w3.org/2000/svg"><path d="m0 0h18v18h-18z" fill="#f0f3fa"/><path d="m15 9a6 6 0 1 1 -.08-1h-1.42c-.4-2.45-2.26-4.3-4.5-4.3-2.53 0-4.59 2.39-4.59 5.3s2.06 5.3 4.59 5.3c2.24 0 4.1-1.85 4.5-4.3h-1.5v-1zm-9-1.73v3.53l1.22 1.14.78-.69v-5.13l.99-.94.97.88.42-.37-1.38-1.29zm4.8-1.18-2.33 2.17 1.76 1.65-2.57 2.43 1.34 1.25 3.01-2.8-1.91-1.79 1.9-1.8-1.2-1.12z" fill="#003586"/></svg>

<!-- by TradingView --><svg width="18" height="18" viewBox="0 0 18 18" xmlns="http://www.w3.org/2000/svg"><path fill="#F0F3FA" d="M0 0h18v18H0z"/><path d="M15 9a6 6 0 1 1-.08-1H13.5C13.1 5.55 11.24 3.7 9 3.7 6.47 3.7 4.41 6.09 4.41 9S6.47 14.3 9 14.3c2.24 0 4.1-1.85 4.5-4.3H12V9h3ZM6 7.27v3.53l1.22 1.14.78-.69V6.12l.99-.94.97.88.42-.37L9 4.4 6 7.27Zm4.8-1.18L8.47 8.26l1.76 1.65-2.57 2.43 1.34 1.25 3.01-2.8L10.1 9l1.9-1.8-1.2-1.12Z" fill="#003586"/></svg>
